X: 2277
T: Back Door, The
R: strathspey
M: 4/4
K: Amajor
d|c/A eA fA ec|B2fe fBBA|cA eA fA ec|Ac ef eAAB|
Acea f2 ec|B2fe fBBA|cA eA fA ec|Ac ef eAAc||
|:ae ce Ac ec|Bffe fBBc|ae ce Ac ec|Ac ef eAAc:|

